X:1
T:Littlefield, LM
T:Littlefield, LM
T:Calvin Weiss Laufer, 1918
T:Public Domain Courtesy of the Cyber Hymnal™
C:Calvin Weiss Laufer, 1918
Z:Public Domain
Z:Courtesy of the Cyber Hymnal™
%%score ( 1 2 ) ( 3 4 )
L:1/8
M:3/4
K:D
V:1 treble 
V:2 treble 
V:3 bass 
V:4 bass 
V:1
 D2 [DE]2 [DF]2 | [DA]4 [DB]2 | E4 [CA]2 | [DA]6 | [DA]2 [DB]2 [Gc]2 | [Fd]4 [Fd]2 | [^Ge]4 [Gd]2 | %7
 [Ec]6 | [Ec]2 [EB]2 [EA]2 | [Dd]4 [DA]2 | A4 [DF]2 | [DB]6 | D2 [DE]2 [DF]2 | [DA]4 [^DB]2 | %14
 [DE]4 [CA]2 | [DA]6 |] %16
V:2
 D2 x4 | x6 | D2 C2 x2 | x6 | x6 | x6 | x6 | x6 | x6 | x6 | D2 C2 x2 | x6 | x6 | x6 | x6 | x6 |] %16
V:3
 [D,F,]2 [D,G,]2 [D,A,]2 | [D,F,]4 [D,G,]2 | [A,,A,]4 [A,,G,]2 | [D,F,]6 | [D,F,]2 G,2 [E,A,]2 | %5
 [D,A,]4 [B,,B,]2 | [E,B,]4 [E,B,]2 | A,6 | [G,A,]2 [G,B,]2 [G,C]2 | [F,A,]4 [F,A,]2 | %10
 B,2 A,2 [D,A,]2 | [G,,G,]6 | [G,B,]2 [G,_B,]2 A,2 | [F,A,]2 [D,F,]2 [B,,F,]2 | %14
 [E,^G,]4 [A,,=G,]2 | [D,F,]6 |] %16
V:4
 x6 | x6 | x6 | x6 | x6 | x6 | x6 | A,6 | x6 | x6 | E,4 x2 | x6 | x6 | x6 | x6 | x6 |] %16

